public/icones/icone-previous2.svg

<?xml version="1.0" standalone="no"?>
<!DOCTYPE svg PUBLIC "-//W3C//DTD SVG 20010904//EN" "http://www.w3.org/TR/2001/REC-SVG-20010904/DTD/svg10.dtd">
<!-- Created using Krita: https://krita.org -->
<svg xmlns="http://www.w3.org/2000/svg" 
    xmlns:xlink="http://www.w3.org/1999/xlink"
    xmlns:krita="http://krita.org/namespaces/svg/krita"
    xmlns:sodipodi="http://sodipodi.sourceforge.net/DTD/sodipodi-0.dtd"
    width="7.68pt"
    height="7.68pt"
    viewBox="0 0 7.68 7.68">
<defs/>
<path id="shape0" transform="matrix(0.41881341079375 0 0 0.488629505470589 -11.6549364219786 -6.85220129769383)" fill="none" stroke="#000000" stroke-width="1.0896" stroke-linecap="round" stroke-linejoin="miter" stroke-miterlimit="1.91999995708466" d="M0.233356 0C-0.149637 0 0.0117109 11.1858 0.201761 12.6112" sodipodi:nodetypes="cc"/><path id="shape1" transform="matrix(0.41881341079375 0 0 0.488629505470589 -14.7560007465938 -4.51017769674888)" fill="none" stroke="#000000" stroke-width="1.0896" stroke-linecap="round" stroke-linejoin="miter" stroke-miterlimit="1.91999995708466" d="M0.961732 1.24106C-3.84202 1.24106 10.6739 1.22252 15.3195 0" sodipodi:nodetypes="cc"/><path id="shape2" transform="matrix(0.392043784281695 0.0261372471883674 -0.0274411234306011 0.360129630813226 -5.66553729018807 -7.2)" fill="none" stroke="#000000" stroke-width="1.0896" stroke-linecap="round" stroke-linejoin="miter" stroke-miterlimit="1.91999995708466" d="M9.60816 0C5.70126 4.73407 3.81328 8.25584 0 12.3717" sodipodi:nodetypes="cc"/><path id="shape3" transform="matrix(0.432149554816034 0.0288110670017757 -0.0302265757261953 0.396685127872124 -4.4275808348284 -6.22211028205679)" fill="none" stroke="#000000" stroke-width="1.0896" stroke-linecap="round" stroke-linejoin="miter" stroke-miterlimit="1.91999995708466" d="M8.58901 0C5.30872 4.35059 3.49804 6.6958 0 10.9093" sodipodi:nodetypes="cc"/><path id="shape4" transform="matrix(0.452892922424548 0.0301940108168301 -0.0294586113236149 0.38660657779095 -6.88816896582736 -2.51652743824185)" fill="none" stroke="#000000" stroke-width="1.0896" stroke-linecap="round" stroke-linejoin="miter" stroke-miterlimit="1.91999995708466" d="M1.53661 0.00794425C1.53661 -0.212076 0.251432 4.20307 0 5.18373" sodipodi:nodetypes="cc"/><path id="shape5" transform="matrix(0.432149554816034 0.0288110670017757 -0.0302265757261953 0.396685127872124 -6.77827604667708 -1.82818650123752)" fill="none" stroke="#000000" stroke-width="1.0896" stroke-linecap="round" stroke-linejoin="miter" stroke-miterlimit="1.91999995708466" d="M4.27951 0C3.53465 1.61384 1.1761 2.33309 0 3.50919" sodipodi:nodetypes="cc"/><path id="shape6" transform="matrix(0.392043784281695 0.0261372471883674 -0.0274411234306011 0.360129630813226 -6.12839768313808 -2.27947773911269)" fill="none" stroke="#000000" stroke-width="1.0896" stroke-linecap="round" stroke-linejoin="miter" stroke-miterlimit="1.91999995708466" d="M0 0C0.123505 0.0617527 4.13614 3.27327 2.36441 2.0356" sodipodi:nodetypes="cc"/><path id="shape7" transform="matrix(0.452892922424548 0.0301940108168301 -0.0294586113236149 0.38660657779095 -6.65970719605048 -1.46290414800408)" fill="none" stroke="#000000" stroke-width="1.0896" stroke-linecap="round" stroke-linejoin="miter" stroke-miterlimit="1.91999995708466" d="M1.32687 1.15911C-0.682029 -0.793289 2.27806 2.3466 0 0" sodipodi:nodetypes="cc"/><path id="shape8" transform="matrix(0.392043784281695 0.0261372471883674 -0.0274411234306011 0.360129630813226 -1.7025817399201 -7.0487442982096)" fill="none" stroke="#000000" stroke-width="1.0896" stroke-linecap="round" stroke-linejoin="miter" stroke-miterlimit="1.91999995708466" d="M0 0C1.47421 1.06904 1.82265 1.10862 3.04196 2.04954" sodipodi:nodetypes="cc"/><path id="shape9" transform="matrix(0.392043784281695 0.0261372471883674 -0.0274411234306011 0.360129630813226 -2.23061420535246 -6.44502175114299)" fill="none" stroke="#000000" stroke-width="1.0896" stroke-linecap="round" stroke-linejoin="miter" stroke-miterlimit="1.91999995708466" d="M0.145734 0.044694C-0.619089 -0.337717 1.83493 1.85486 2.67342 2.02255" sodipodi:nodetypes="cc"/><path id="shape10" transform="matrix(0.639044492479149 0 0 0.647025246275272 1.6604114361879 -6.94897787412518)" fill="none" stroke="#000000" stroke-width="0.96" stroke-linecap="round" stroke-linejoin="miter" stroke-miterlimit="1.91999995708466" d="M0 8.30965C0.345016 9.53635 5.16189 10.4853 7.02933 7.44565C11.1677 0.442958 0.32 -3.03527 0.32 3.38165" sodipodi:nodetypes="ccc"/><path id="shape11" transform="matrix(0.639044492479149 0 0 0.647025246275272 0.883333333333201 -6.23791243991099)" fill="none" stroke="#000000" stroke-width="0.96" stroke-linecap="round" stroke-linejoin="miter" stroke-miterlimit="1.91999995708466" d="M0 0C0.300557 1.60378 0.864521 4.37081 1.49333 3.30667" sodipodi:nodetypes="cc"/><path id="shape12" transform="matrix(0.639044492479149 0 0 0.647025246275272 1.9467033688186 -5.18886884061668)" fill="none" stroke="#000000" stroke-width="0.96" stroke-linecap="round" stroke-linejoin="miter" stroke-miterlimit="1.91999995708466" d="M2.48533 0C1.64339 0.565333 0.609793 1.42452 0 1.97333" sodipodi:nodetypes="cc"/><path id="shape13" transform="matrix(0.813499984972115 0 0 0.989556555269978 8.7049187238259 -3.90368970458109)" fill="none" stroke="#000000" stroke-width="0.72" stroke-linecap="round" stroke-linejoin="miter" stroke-miterlimit="1.91999995708466" d="M0 0.354973C3.05672 0.235934 2.84001 0.289093 7.07447 0" sodipodi:nodetypes="cc"/><path id="shape14" transform="matrix(0.813499984972115 0 0 0.989556555269978 8.4729999999996 -6.90900000000032)" fill="none" stroke="#000000" stroke-width="0.72" stroke-linecap="round" stroke-linejoin="miter" stroke-miterlimit="1.91999995708466" d="M0 3.456C1.58452 1.44954 2.26284 1.04 3.728 0" sodipodi:nodetypes="cc"/><path id="shape15" transform="matrix(0.813499984972115 0 0 0.989556555269978 8.6096679974749 -3.44951028277648)" fill="none" stroke="#000000" stroke-width="0.72" stroke-linecap="round" stroke-linejoin="miter" stroke-miterlimit="1.91999995708466" d="M0 0C1.25567 1.00763 1.62514 1.56472 3.744 2.728" sodipodi:nodetypes="cc"/><path id="shape16" transform="matrix(1.14403886554623 0 0 1.10776277724201 18.9138081232492 -6.84666666666643)" fill="none" stroke="#000000" stroke-width="0.6096" stroke-linecap="round" stroke-linejoin="miter" stroke-miterlimit="1.91999995708466" d="M0 0C0.772867 0.853333 1.81941 1.74407 2.74133 2.70933" sodipodi:nodetypes="cc"/><path id="shape17" transform="matrix(1.14403886554623 0 0 1.10776277724201 18.6453403361344 -3.93398907103815)" fill="none" stroke="#000000" stroke-width="0.6096" stroke-linecap="round" stroke-linejoin="miter" stroke-miterlimit="1.91999995708466" d="M2.93867 0C1.75479 1.13416 1.10539 2.17183 0 2.90133" sodipodi:nodetypes="cc"/><path id="shape18" transform="matrix(1.14403886554623 0 0 1.10776277724201 16.2413333333333 -3.95199219374877)" fill="none" stroke="#000000" stroke-width="0.6096" stroke-linecap="round" stroke-linejoin="miter" stroke-miterlimit="1.91999995708466" d="M4.8 0.0215852C2.44285 -0.0832705 2.07629 0.233293 0 0.133585" sodipodi:nodetypes="cc"/><path id="shape19" transform="matrix(1.23252467105275 0 0 1.29256644518279 24.5057730263153 -7.00500000000032)" fill="none" stroke="#000000" stroke-width="0.6096" stroke-linecap="round" stroke-linejoin="miter" stroke-miterlimit="1.91999995708466" d="M0 4.816C1.02086 3.56119 3.35744 0.975678 4.32 0" sodipodi:nodetypes="cc"/><path id="shape20" transform="matrix(1.23252467105275 0 0 1.29256644518279 23.8549999999995 -6.82921096345545)" fill="none" stroke="#000000" stroke-width="0.6096" stroke-linecap="round" stroke-linejoin="miter" stroke-miterlimit="1.91999995708466" d="M4.864 4.424C3.87422 3.17375 1.94355 0.895909 0 0" sodipodi:nodetypes="cc"/><path id="shape21" transform="matrix(1.23252467105275 0 0 1.29256644518279 29.8204194078947 -7.00500000000022)" fill="none" stroke="#000000" stroke-width="0.6096" stroke-linecap="round" stroke-linejoin="miter" stroke-miterlimit="1.91999995708466" d="M0 0" sodipodi:nodetypes="c"/><path id="shape22" transform="matrix(1.29034276461017 0 0 1.17224703626684 31.7984054374426 -5.14887703023562)" fill="none" stroke="#000000" stroke-width="0.6096" stroke-linecap="round" stroke-linejoin="miter" stroke-miterlimit="1.91999995708466" d="M0 0C2.81941 0.451136 3.79975 1.20266 4.41867 3.70133" sodipodi:nodetypes="cc"/><path id="shape23" transform="matrix(1.37231169919822 0.269558063789789 -0.290567031551028 1.22088534080903 32.1490160140194 -7.44093767585674)" fill="none" stroke="#000000" stroke-width="0.6096" stroke-linecap="round" stroke-linejoin="miter" stroke-miterlimit="1.91999995708466" d="M0 1.58435C1.23582 0.628767 0.597719 0.746983 2.31096 0" sodipodi:nodetypes="cc"/><path id="shape24" transform="matrix(1.37231169919822 0.269558063789789 -0.290567031551028 1.22088534080903 31.5719253989533 -4.98650991809139)" fill="none" stroke="#000000" stroke-width="0.6096" stroke-linecap="round" stroke-linejoin="miter" stroke-miterlimit="1.91999995708466" d="M0 0C0.681322 1.01918 0.856937 0.692813 1.96337 1.7438" sodipodi:nodetypes="cc"/><path id="shape25" transform="matrix(0.754783779290918 0 0 0.893604953879548 40.2913022707572 -4.22433606068364)" fill="none" stroke="#000000" stroke-width="0.6096" stroke-linecap="round" stroke-linejoin="miter" stroke-miterlimit="1.91999995708466" d="M0 2.264C3.22886 2.16727 9.53767 2.8267 6.288 0" sodipodi:nodetypes="cc"/><path id="shape26" transform="matrix(0.754783779290918 0 0 0.893604953879548 40.2449485744641 -6.66000357086369)" fill="none" stroke="#000000" stroke-width="0.6096" stroke-linecap="round" stroke-linejoin="miter" stroke-miterlimit="1.91999995708466" d="M0.0614133 2.14166C-0.419073 1.11255 2.02481 -1.41373 3.73341 1.03766" sodipodi:nodetypes="cc"/><path id="shape27" transform="matrix(0.754783779290918 0 0 0.893604953879548 43.2802460367492 -5.86104557874843)" fill="none" stroke="#000000" stroke-width="0.6096" stroke-linecap="round" stroke-linejoin="miter" stroke-miterlimit="1.91999995708466" d="M0 0.215581C1.36805 -0.544905 2.42638 0.897256 2.208 1.59158" sodipodi:nodetypes="cc"/><path id="shape28" transform="matrix(0.754783779290918 0 0 0.893604953879548 38.8824939149214 -4.73399247978445)" fill="none" stroke="#000000" stroke-width="0.6096" stroke-linecap="round" stroke-linejoin="miter" stroke-miterlimit="1.91999995708466" d="M1.56251 0.0103376C-0.333804 -0.207617 -0.774172 3.0961 1.77051 2.82634" sodipodi:nodetypes="cc"/><path id="shape29" transform="matrix(0.754783779290918 0 0 0.893604953879548 40.0256183804467 -6.56915545966358)" fill="none" stroke="#000000" stroke-width="0.6096" stroke-linecap="round" stroke-linejoin="miter" stroke-miterlimit="1.91999995708466" d="M7.368 0C5.38333 1.52865 1.63416 4.55703 0 6.512" sodipodi:nodetypes="cc"/><path id="shape30" transform="matrix(0.496928181161217 0 0 0.518760639710523 8.80499999999983 2.15396490051483)" fill="none" stroke="#000000" stroke-width="1.44" stroke-linecap="round" stroke-linejoin="bevel" d="M0 9.57867C0.903311 5.19355 5.3272 0.291631 11.2853 0" sodipodi:nodetypes="cc"/><path id="shape31" transform="matrix(0.496928181161217 0 0 0.518760639710523 11.0575391585768 0.931000084632549)" fill="none" stroke="#000000" stroke-width="1.44" stroke-linecap="round" stroke-linejoin="bevel" d="M0.971073 0.106808C-2.69929 -0.111564 5.11253 -0.21311 6.58174 2.06947" sodipodi:nodetypes="cc"/><path id="shape32" transform="matrix(0.496928181161217 0 0 0.518760639710523 12.4663667297969 2.15396490051483)" fill="none" stroke="#000000" stroke-width="1.44" stroke-linecap="round" stroke-linejoin="bevel" d="M0 5.32267C1.66916 2.25604 2.82859 1.98165 3.90667 0" sodipodi:nodetypes="cc"/><path id="shape33" transform="matrix(0.5605613151024 0 0 0.534660436114004 1.34848007104016 2.23319580569648)" fill="none" stroke="#000000" stroke-width="1.44" stroke-linecap="round" stroke-linejoin="bevel" d="M0 0C3.328 0.844257 4.14399 0.915304 6.66036 2.82313C8.43119 4.06962 9.672 7.63443 10.048 8.86133" sodipodi:nodetypes="ccc"/><path id="shape34" transform="matrix(0.5605613151024 0 0 0.534660436114004 1.00317430093707 0.882999999999939)" fill="none" stroke="#000000" stroke-width="1.44" stroke-linecap="round" stroke-linejoin="bevel" d="M0 2.31733C2.28842 0.201922 5.60124 0 6.888 0" sodipodi:nodetypes="cc"/><path id="shape35" transform="matrix(0.5605613151024 0 0 0.534660436114004 0.908999999999885 2.23319580569648)" fill="none" stroke="#000000" stroke-width="1.44" stroke-linecap="round" stroke-linejoin="bevel" d="M0 0C1.97743 2.42514 2.66133 3.07859 3.80533 5.34667" sodipodi:nodetypes="cc"/><path id="shape36" transform="matrix(0.410055643879173 0 0 0.475121784051166 -6.21952262851107 1.92502467741607)" fill="none" stroke="#000000" stroke-width="1.44" stroke-linecap="round" stroke-linejoin="bevel" d="M0 0.108C3.21863 0.076 9.47379 0.0542312 11.892 0" sodipodi:nodetypes="cc"/><path id="shape37" transform="matrix(0.410055643879173 0 0 0.475121784051166 -1.81683174398893 0.684320109092457)" fill="none" stroke="#000000" stroke-width="1.44" stroke-linecap="round" stroke-linejoin="bevel" d="M1.41119 2.59134C1.36319 2.35137 0.145917 0 0 0" sodipodi:nodetypes="cc"/><path id="shape38" transform="matrix(0.410055643879173 0 0 0.475121784051166 -5.59951849496578 0.589506492887954)" fill="none" stroke="#000000" stroke-width="1.44" stroke-linecap="round" stroke-linejoin="bevel" d="M8.612 0.265493C5.72828 -0.0490943 2.4568 -0.12731 0 0.269493" sodipodi:nodetypes="cc"/><path id="shape39" transform="matrix(0.410055643879173 0 0 0.475121784051166 -6.39666666666689 0.805566669264572)" fill="none" stroke="#000000" stroke-width="1.44" stroke-linecap="round" stroke-linejoin="bevel" d="M1.64722 0C1.07125 0.634985 0.669699 1.09263 0 2.12415" sodipodi:nodetypes="cc"/><path id="shape40" transform="matrix(0.410055643879173 0 0 0.475121784051166 -5.66466994878883 2.17778946653129)" fill="none" stroke="#000000" stroke-width="1.44" stroke-linecap="round" stroke-linejoin="bevel" d="M0.0108844 0C-0.107953 0.38622 0.777695 7.53694 1.13888 9.688" sodipodi:nodetypes="cc"/><path id="shape41" transform="matrix(0.410055643879173 0 0 0.475121784051166 -2.20097731849521 2.33933087310869)" fill="none" stroke="#000000" stroke-width="1.44" stroke-linecap="round" stroke-linejoin="bevel" d="M1.064 0C0.628 1.85871 0.448 7.41729 0 9.296" sodipodi:nodetypes="cc"/><path id="shape42" transform="matrix(0.410055643879173 0 0 0.475121784051166 -5.08612882882905 6.84914553917191)" fill="none" stroke="#000000" stroke-width="1.44" stroke-linecap="round" stroke-linejoin="bevel" d="M0 0.108087C0.987361 0.108087 4.97525 -0.0430024 6.048 0.0120869" sodipodi:nodetypes="cc"/><path id="shape43" transform="matrix(0.410055643879173 0 0 0.475121784051166 -4.38085100194325 3.33138515820751)" fill="none" stroke="#000000" stroke-width="1.44" stroke-linecap="round" stroke-linejoin="bevel" d="M4.36052e-05 0C-0.00522137 0.897624 0.468044 4.50316 0.468044 6.552" sodipodi:nodetypes="cc"/><path id="shape44" transform="matrix(0.410055643879173 0 0 0.475121784051166 -3.12278240593561 3.35799197811438)" fill="none" stroke="#000000" stroke-width="1.44" stroke-linecap="round" stroke-linejoin="bevel" d="M0.364 0C0.283588 1.50821 0.0383424 5.64151 0 6.96" sodipodi:nodetypes="cc"/>
</svg>

<svg xmlns="http://www.w3.org/2000/svg" width="10.24" height="10.24" viewBox="0 0 7.68 7.68">
<g stroke="red">
  <path transform="matrix(.41881 0 0 .48863 -11.65 -6.85)" fill="none" stroke-width="1.09" stroke-linecap="round" stroke-miterlimit="1.92" d="M.23 0C-.15 0 .01 11.19.2 12.61"/>
  <path transform="matrix(.41881 0 0 .48863 -14.76 -4.51)" fill="none" stroke-width="1.09" stroke-linecap="round" stroke-miterlimit="1.92" d="M.96 1.24c-4.8 0 9.71-.02 14.36-1.24"/>
  <path transform="matrix(.39204 .02614 -.02744 .36013 -5.67 -7.2)" fill="none" stroke-width="1.09" stroke-linecap="round" stroke-miterlimit="1.92" d="M9.6 0C5.7 4.73 3.82 8.26 0 12.37"/>
  <path transform="matrix(.43215 .02881 -.03023 .39669 -4.43 -6.22)" fill="none" stroke-width="1.09" stroke-linecap="round" stroke-miterlimit="1.92" d="M8.59 0C5.3 4.35 3.49 6.7 0 10.9"/>
  <path transform="matrix(.4529 .0302 -.02946 .3866 -6.89 -2.52)" fill="none" stroke-width="1.09" stroke-linecap="round" stroke-miterlimit="1.92" d="M1.54 0C1.54-.2.25 4.2 0 5.19"/>
  <path transform="matrix(.43215 .02881 -.03023 .39669 -6.78 -1.83)" fill="none" stroke-width="1.09" stroke-linecap="round" stroke-miterlimit="1.92" d="M4.28 0C3.53 1.61 1.18 2.33 0 3.5"/>
  <path transform="matrix(.39204 .02614 -.02744 .36013 -6.13 -2.28)" fill="none" stroke-width="1.09" stroke-linecap="round" stroke-miterlimit="1.92" d="M0 0c.12.06 4.14 3.27 2.36 2.04"/>
  <path transform="matrix(.4529 .0302 -.02946 .3866 -6.66 -1.46)" fill="none" stroke-width="1.09" stroke-linecap="round" stroke-miterlimit="1.92" d="M1.33 1.16C-.68-.8 2.28 2.35 0 0"/>
  <path transform="matrix(.39204 .02614 -.02744 .36013 -1.7 -7.05)" fill="none" stroke-width="1.09" stroke-linecap="round" stroke-miterlimit="1.92" d="M0 0c1.47 1.07 1.82 1.1 3.04 2.05"/>
  <path transform="matrix(.39204 .02614 -.02744 .36013 -2.23 -6.45)" fill="none" stroke-width="1.09" stroke-linecap="round" stroke-miterlimit="1.92" d="M.15.04c-.77-.38 1.68 1.81 2.52 1.98"/>
  <path transform="matrix(.63904 0 0 .64703 1.66 -6.95)" fill="none" stroke-width=".96" stroke-linecap="round" stroke-miterlimit="1.92" d="M0 8.31c.35 1.23 5.16 2.18 7.03-.86C11.17.45.32-3.04.32 3.38"/>
  <path transform="matrix(.63904 0 0 .64703 .88 -6.24)" fill="none" stroke-width=".96" stroke-linecap="round" stroke-miterlimit="1.92" d="M0 0c.3 1.6.86 4.37 1.5 3.3"/>
  <path transform="matrix(.63904 0 0 .64703 1.95 -5.19)" fill="none" stroke-width=".96" stroke-linecap="round" stroke-miterlimit="1.92" d="M2.49 0C1.64.57.6 1.42 0 1.97"/>
  <path transform="matrix(.8135 0 0 .98956 8.7 -3.9)" fill="none" stroke-width=".72" stroke-linecap="round" stroke-miterlimit="1.92" d="M0 .35C3.06.24 2.84.3 7.07 0"/>
  <path transform="matrix(.8135 0 0 .98956 8.47 -6.9)" fill="none" stroke-width=".72" stroke-linecap="round" stroke-miterlimit="1.92" d="M0 3.46C1.58 1.45 2.26 1.04 3.73 0"/>
  <path transform="matrix(.8135 0 0 .98956 8.61 -3.45)" fill="none" stroke-width=".72" stroke-linecap="round" stroke-miterlimit="1.92" d="M0 0c1.26 1 1.63 1.56 3.74 2.73"/>
  <path transform="matrix(1.14404 0 0 1.10776 18.91 -6.85)" fill="none" stroke-width=".61" stroke-linecap="round" stroke-miterlimit="1.92" d="M0 0c.77.85 1.82 1.74 2.74 2.7"/>
  <path transform="matrix(1.14404 0 0 1.10776 18.65 -3.93)" fill="none" stroke-width=".61" stroke-linecap="round" stroke-miterlimit="1.92" d="M2.94 0C1.75 1.13 1.1 2.17 0 2.9"/>
  <path transform="matrix(1.14404 0 0 1.10776 16.24 -3.95)" fill="none" stroke-width=".61" stroke-linecap="round" stroke-miterlimit="1.92" d="M4.8.02C2.44-.08 2.08.23 0 .13"/>
  <path transform="matrix(1.23252 0 0 1.29257 24.5 -7)" fill="none" stroke-width=".61" stroke-linecap="round" stroke-miterlimit="1.92" d="M0 4.82A97.52 97.52 0 0 1 4.32 0"/>
  <path transform="matrix(1.23252 0 0 1.29257 23.85 -6.83)" fill="none" stroke-width=".61" stroke-linecap="round" stroke-miterlimit="1.92" d="M4.86 4.42C3.87 3.17 1.94.9 0 0"/>
  <path transform="matrix(1.29034 0 0 1.17225 31.8 -5.15)" fill="none" stroke-width=".61" stroke-linecap="round" stroke-miterlimit="1.92" d="M0 0c2.82.45 3.8 1.2 4.42 3.7"/>
  <path transform="matrix(1.37231 .26956 -.29057 1.22089 32.15 -7.44)" fill="none" stroke-width=".61" stroke-linecap="round" stroke-miterlimit="1.92" d="M0 1.58C1.24.63.6.75 2.31 0"/>
  <path transform="matrix(1.37231 .26956 -.29057 1.22089 31.57 -4.99)" fill="none" stroke-width=".61" stroke-linecap="round" stroke-miterlimit="1.92" d="M0 0c.68 1.02.86.7 1.96 1.74"/>
  <path transform="matrix(.75478 0 0 .8936 40.3 -4.22)" fill="none" stroke-width=".61" stroke-linecap="round" stroke-miterlimit="1.92" d="M0 2.26c3.23-.1 9.54.57 6.29-2.26"/>
  <path transform="matrix(.75478 0 0 .8936 40.24 -6.66)" fill="none" stroke-width=".61" stroke-linecap="round" stroke-miterlimit="1.92" d="M.06 2.14c-.48-1.03 1.96-3.55 3.67-1.1"/>
  <path transform="matrix(.75478 0 0 .8936 43.28 -5.86)" fill="none" stroke-width=".61" stroke-linecap="round" stroke-miterlimit="1.92" d="M0 .22C1.37-.54 2.43.9 2.2 1.59"/>
  <path transform="matrix(.75478 0 0 .8936 38.88 -4.73)" fill="none" stroke-width=".61" stroke-linecap="round" stroke-miterlimit="1.92" d="M1.56.01c-1.9-.22-2.33 3.09.21 2.82"/>
  <path transform="matrix(.75478 0 0 .8936 40.03 -6.57)" fill="none" stroke-width=".61" stroke-linecap="round" stroke-miterlimit="1.92" d="M7.37 0C5.38 1.53 1.63 4.56 0 6.51"/>
  <path transform="matrix(.49693 0 0 .51876 8.8 2.15)" fill="none" stroke-width="1.44" stroke-linecap="round" stroke-linejoin="bevel" d="M0 9.58C.9 5.19 5.33.29 11.29 0"/>
  <path transform="matrix(.49693 0 0 .51876 11.06 .93)" fill="none" stroke-width="1.44" stroke-linecap="round" stroke-linejoin="bevel" d="M.97.1C-2.7-.1 5.11-.2 6.58 2.08"/>
  <path transform="matrix(.49693 0 0 .51876 12.47 2.15)" fill="none" stroke-width="1.44" stroke-linecap="round" stroke-linejoin="bevel" d="M0 5.32C1.67 2.26 2.83 1.98 3.9 0"/>
  <path transform="matrix(.56056 0 0 .53466 1.35 2.23)" fill="none" stroke-width="1.44" stroke-linecap="round" stroke-linejoin="bevel" d="M0 0c3.33.84 4.14.92 6.66 2.82 1.77 1.25 3.01 4.81 3.39 6.04"/>
  <path transform="matrix(.56056 0 0 .53466 1 .88)" fill="none" stroke-width="1.44" stroke-linecap="round" stroke-linejoin="bevel" d="M0 2.32C2.29.2 5.6 0 6.89 0"/>
  <path transform="matrix(.56056 0 0 .53466 .9 2.23)" fill="none" stroke-width="1.44" stroke-linecap="round" stroke-linejoin="bevel" d="M0 0c1.98 2.43 2.66 3.08 3.8 5.35"/>
  <path transform="matrix(.41006 0 0 .47512 -6.22 1.93)" fill="none" stroke-width="1.44" stroke-linecap="round" stroke-linejoin="bevel" d="M0 .1C3.22.09 9.47.06 11.9 0"/>
  <path transform="matrix(.41006 0 0 .47512 -1.82 .68)" fill="none" stroke-width="1.44" stroke-linecap="round" stroke-linejoin="bevel" d="M1.41 2.6C1.36 2.34.15 0 0 0"/>
  <path transform="matrix(.41006 0 0 .47512 -5.6 .59)" fill="none" stroke-width="1.44" stroke-linecap="round" stroke-linejoin="bevel" d="M8.61.27C5.73-.05 2.46-.13 0 .27"/>
  <path transform="matrix(.41006 0 0 .47512 -6.4 .8)" fill="none" stroke-width="1.44" stroke-linecap="round" stroke-linejoin="bevel" d="M1.65 0C1.07.63.67 1.1 0 2.12"/>
  <path transform="matrix(.41006 0 0 .47512 -5.66 2.18)" fill="none" stroke-width="1.44" stroke-linecap="round" stroke-linejoin="bevel" d="M.01 0C-.1.39.78 7.54 1.14 9.69"/>
  <path transform="matrix(.41006 0 0 .47512 -2.2 2.34)" fill="none" stroke-width="1.44" stroke-linecap="round" stroke-linejoin="bevel" d="M1.06 0C.63 1.86.45 7.42 0 9.3"/>
  <path transform="matrix(.41006 0 0 .47512 -5.09 6.85)" fill="none" stroke-width="1.44" stroke-linecap="round" stroke-linejoin="bevel" d="M0 .1C.99.1 4.98-.03 6.05.02"/>
  <path transform="matrix(.41006 0 0 .47512 -4.38 3.33)" fill="none" stroke-width="1.44" stroke-linecap="round" stroke-linejoin="bevel" d="M0 0c0 .9.47 4.5.47 6.55"/>
  <path transform="matrix(.41006 0 0 .47512 -3.12 3.36)" fill="none" stroke-width="1.44" stroke-linecap="round" stroke-linejoin="bevel" d="M.36 0C.28 1.5.04 5.64 0 6.96"/>
</g>
</svg>
